X:1
T:Title
%%score { 1 | ( 2 3 ) }
L:1/8
Q:1/4=94
M:3/4
K:G
V:1 treble nm="Grand Piano"
V:2 treble 
V:3 treble 
V:1
 G>G G2 B2 | [FA]>[FA] [FA]4 | [Fc]>[FA] F2 A2 | [CDA]>[B,DG] [B,DG]4 | %4
w: Robert~Lowry * * *||||
 [CDA]>[B,DG] [A,DF]2 [B,DG]2 | [DFA]>[DGB] [DFA]4 | [DGB]>[CFA] [B,G]2 [DFA]2 | %7
w: |||
 [DGB]>[EGc] [DGB]4 | [DAd]>[DAc] [DGB]2 [CFA]2 | [B,EG]>[A,^DF] [G,E]4 | %10
w: |||
 [G,B,D]>[B,DG] [DGB]2 [DG]2 | [CDA]>[B,DG] [B,DG]4 |] %12
w: ||
V:2
 [G,B,D]>[G,B,D] [G,B,D]2 [G,DG]2 | [D,D]>[D,D] [D,D]4 | z2 A,2 z2 | G,,>G,, G,,4 | D,>D, D,2 D,2 | %5
 D,>D, D,4 | G,>G, G,2 D,2 | G,>G, G,4 | F,>D, G,2 D,2 | E,>B,, z2 C2 | D,>D, z2 B,2 | %11
 D,>G,, G,,4 |] %12
V:3
 x6 | x6 | [D,A,]>[D,A,] [D,D]2- [D,CD]2 | x6 | x6 | x6 | x6 | x6 | x6 | z2 C,4 | z2 D,4 | x6 |] %12

